X:4
T:Menuette ur en Menuette- och Pollonessebok
T:(SmM IX-4)
O:Odensjö, Småland
B:Småländsk Musiktradition
B:Menuette- och Pollonessebok
N:Smus MMD33, mitten 1700-talet.
R:Menuett
Q:1/4=130
M:3/4
L:1/8
K:A
AB cd ed|c2 AB cd|e2 d2 c2|B2 GA Bc|d2 c2 B2|c2 AB cd|ef/g/ ae dc|B6:|
|:B4 c2|d2 Bc de|f2 e2 d2|e2 AB cd|e4 a2|gf ed cB|Ad cB AG|A6:|

